dist/svgs/file3.svg

<svg xmlns="http://www.w3.org/2000/svg" viewBox="0 0 512 512"><path d="M464 138v324q0 11-4 19-4 9-11 17-4 4-8 6.5t-9 4.5q-9 3-20 3H101q-11 0-20-3-11-4-17-11-8-8-11-17-5-10-5-19V51q0-9 5-19 2-8 11-17T81 4q8-4 20-4h224zm-352 86h99v-32h-99v32zm0 80h165v-32H112v32zm231 48H112v32h231v-32zm105-192L320 32v128h128z"/></svg>

<?xml version="1.0" encoding="UTF-8" standalone="no"?><svg   xmlns:svg="http://www.w3.org/2000/svg"   xmlns="http://www.w3.org/2000/svg"   version="1.1"   width="512"   height="512"   viewBox="0 0 512 512">  <path     d="M464 138V462Q464 473 460 481Q456 490 449 498Q445 502 441 504.5T432 509Q423 512 412 512H101Q90 512 81 509Q70 505 64 498Q56 490 53 481Q48 471 48 462V51Q48 42 53 32Q55 24 64 15T81 4Q89 0 101 0H325zM112 224H211V192H112V224zM112 304H277V272H112V304zM343 352H112V384H343V352zM448 160L320 32V160H448z"     id="file3" /></svg>
